frontend/public/images/assets/discord-icon.svg

<svg version="1.1" id="Layer_1" xmlns="http://www.w3.org/2000/svg" xmlns:xlink="http://www.w3.org/1999/xlink" x="0px" y="0px"
	 width="100%" viewBox="0 0 1024 1024" enable-background="new 0 0 1024 1024" xml:space="preserve">
<path fill="#000000" opacity="1.000000" stroke="none" 
	d="
M498.000000,1025.000000 
	C332.000000,1025.000000 166.500000,1025.000000 1.000000,1025.000000 
	C1.000000,683.666687 1.000000,342.333344 1.000000,1.000000 
	C342.333344,1.000000 683.666687,1.000000 1025.000000,1.000000 
	C1025.000000,342.333344 1025.000000,683.666687 1025.000000,1025.000000 
	C849.500000,1025.000000 674.000000,1025.000000 498.000000,1025.000000 
M727.997192,721.502869 
	C738.059631,716.459351 748.232605,711.623108 758.161194,706.328613 
	C778.037781,695.729309 797.370422,684.224609 815.155090,670.308044 
	C816.387512,669.343689 817.791321,667.744995 817.908447,666.340576 
	C819.083801,652.238770 820.360901,638.128723 820.874146,623.994324 
	C821.209595,614.754028 820.511414,605.459229 819.960876,596.207581 
	C819.119629,582.070984 818.656128,567.866821 816.847168,553.844177 
	C814.468933,535.408264 811.833008,516.917786 807.714722,498.813141 
	C800.013550,464.957550 788.521790,432.243805 773.854248,400.767365 
	C761.434204,374.114044 747.008118,348.504486 730.420532,324.197693 
	C728.088135,320.779907 724.278992,317.706207 720.467773,316.079559 
	C706.275391,310.022339 692.105225,303.593414 677.356628,299.231598 
	C653.065613,292.047760 628.347656,286.296875 603.746338,280.197693 
	C602.081909,279.785004 598.876709,280.950684 598.105469,282.337433 
	C593.673279,290.306885 589.374451,298.401245 585.817627,306.787201 
	C583.756409,311.646729 580.705261,312.421082 576.192871,311.981537 
	C558.380249,310.246490 540.583191,308.034943 522.724121,307.196533 
	C508.838257,306.544617 494.865417,307.565796 480.938995,308.061462 
	C476.535614,308.218170 472.162659,309.128235 467.766357,309.606689 
	C459.307007,310.527252 450.840881,311.385803 442.990326,312.206055 
	C438.011871,302.110840 433.256348,292.799103 428.839264,283.329468 
	C427.312836,280.056976 424.994354,279.540527 422.049561,280.089142 
	C415.326965,281.341614 408.575378,282.505554 401.932526,284.107544 
	C369.005493,292.048035 336.675079,301.845306 305.711060,315.755188 
	C303.001404,316.972382 299.548157,318.092163 298.110229,320.330139 
	C288.595886,335.138184 279.112610,349.997986 270.425903,365.298889 
	C255.270081,391.994507 242.571121,419.879272 232.578506,448.930145 
	C224.047577,473.731567 216.604263,498.874268 213.028397,524.922363 
	C209.954803,547.311707 206.572372,569.746216 205.317047,592.271729 
	C204.164597,612.951538 205.632828,633.780090 206.042770,654.541260 
	C206.107346,657.811279 206.448837,661.119385 207.107376,664.318176 
	C207.509857,666.273193 208.299072,668.601685 209.723465,669.804321 
	C213.319458,672.840454 217.342224,675.380005 221.248398,678.038574 
	C245.423599,694.492493 270.678528,708.951904 297.276733,721.242798 
	C317.726898,730.692688 338.755341,738.395203 360.041565,745.558044 
	C362.420319,746.358459 364.232452,746.335693 365.811310,743.823975 
	C368.673889,739.270020 372.091827,735.064270 374.939453,730.501892 
	C382.676544,718.105774 390.236542,705.599121 397.859497,693.148193 
	C379.712128,684.408752 362.665405,676.199402 345.017609,667.700623 
	C348.731079,664.732056 351.361115,662.581482 354.044250,660.499451 
	C356.335602,658.721375 358.525818,658.369812 361.474670,659.712097 
	C390.045441,672.716919 419.743103,681.883118 450.764160,687.243164 
	C471.608917,690.844910 492.545685,692.514099 513.558777,692.779114 
	C527.339722,692.953003 541.197693,691.449280 554.928711,689.885010 
	C568.215759,688.371460 581.547546,686.534790 594.569641,683.567200 
	C618.708618,678.066284 642.189209,670.312683 664.615479,659.673523 
	C667.318848,658.391052 669.449219,658.527283 671.634949,660.264648 
	C674.414062,662.473633 677.144531,664.743958 681.028442,667.911438 
	C663.452026,676.258606 646.486511,684.315674 629.065186,692.589172 
	C629.104736,692.795593 629.020020,694.075256 629.569336,694.962341 
	C639.517883,711.027466 649.626404,726.994324 659.468750,743.123779 
	C661.096985,745.792175 662.419006,746.477356 665.343750,745.359680 
	C685.984131,737.471863 706.677429,729.722656 727.997192,721.502869 
z"/>
<path fill="#7466D4" opacity="1.000000" stroke="none" 
	d="
M727.675537,721.716064 
	C706.677429,729.722656 685.984131,737.471863 665.343750,745.359680 
	C662.419006,746.477356 661.096985,745.792175 659.468750,743.123779 
	C649.626404,726.994324 639.517883,711.027466 629.569336,694.962341 
	C629.020020,694.075256 629.104736,692.795593 629.065186,692.589172 
	C646.486511,684.315674 663.452026,676.258606 681.028442,667.911438 
	C677.144531,664.743958 674.414062,662.473633 671.634949,660.264648 
	C669.449219,658.527283 667.318848,658.391052 664.615479,659.673523 
	C642.189209,670.312683 618.708618,678.066284 594.569641,683.567200 
	C581.547546,686.534790 568.215759,688.371460 554.928711,689.885010 
	C541.197693,691.449280 527.339722,692.953003 513.558777,692.779114 
	C492.545685,692.514099 471.608917,690.844910 450.764160,687.243164 
	C419.743103,681.883118 390.045441,672.716919 361.474670,659.712097 
	C358.525818,658.369812 356.335602,658.721375 354.044250,660.499451 
	C351.361115,662.581482 348.731079,664.732056 345.017609,667.700623 
	C362.665405,676.199402 379.712128,684.408752 397.859497,693.148193 
	C390.236542,705.599121 382.676544,718.105774 374.939453,730.501892 
	C372.091827,735.064270 368.673889,739.270020 365.811310,743.823975 
	C364.232452,746.335693 362.420319,746.358459 360.041565,745.558044 
	C338.755341,738.395203 317.726898,730.692688 297.276733,721.242798 
	C270.678528,708.951904 245.423599,694.492493 221.248398,678.038574 
	C217.342224,675.380005 213.319458,672.840454 209.723465,669.804321 
	C208.299072,668.601685 207.509857,666.273193 207.107376,664.318176 
	C206.448837,661.119385 206.107346,657.811279 206.042770,654.541260 
	C205.632828,633.780090 204.164597,612.951538 205.317047,592.271729 
	C206.572372,569.746216 209.954803,547.311707 213.028397,524.922363 
	C216.604263,498.874268 224.047577,473.731567 232.578506,448.930145 
	C242.571121,419.879272 255.270081,391.994507 270.425903,365.298889 
	C279.112610,349.997986 288.595886,335.138184 298.110229,320.330139 
	C299.548157,318.092163 303.001404,316.972382 305.711060,315.755188 
	C336.675079,301.845306 369.005493,292.048035 401.932526,284.107544 
	C408.575378,282.505554 415.326965,281.341614 422.049561,280.089142 
	C424.994354,279.540527 427.312836,280.056976 428.839264,283.329468 
	C433.256348,292.799103 438.011871,302.110840 442.990326,312.206055 
	C450.840881,311.385803 459.307007,310.527252 467.766357,309.606689 
	C472.162659,309.128235 476.535614,308.218170 480.938995,308.061462 
	C494.865417,307.565796 508.838257,306.544617 522.724121,307.196533 
	C540.583191,308.034943 558.380249,310.246490 576.192871,311.981537 
	C580.705261,312.421082 583.756409,311.646729 585.817627,306.787201 
	C589.374451,298.401245 593.673279,290.306885 598.105469,282.337433 
	C598.876709,280.950684 602.081909,279.785004 603.746338,280.197693 
	C628.347656,286.296875 653.065613,292.047760 677.356628,299.231598 
	C692.105225,303.593414 706.275391,310.022339 720.467773,316.079559 
	C724.278992,317.706207 728.088135,320.779907 730.420532,324.197693 
	C747.008118,348.504486 761.434204,374.114044 773.854248,400.767365 
	C788.521790,432.243805 800.013550,464.957550 807.714722,498.813141 
	C811.833008,516.917786 814.468933,535.408264 816.847168,553.844177 
	C818.656128,567.866821 819.119629,582.070984 819.960876,596.207581 
	C820.511414,605.459229 821.209595,614.754028 820.874146,623.994324 
	C820.360901,638.128723 819.083801,652.238770 817.908447,666.340576 
	C817.791321,667.744995 816.387512,669.343689 815.155090,670.308044 
	C797.370422,684.224609 778.037781,695.729309 758.161194,706.328613 
	C748.232605,711.623108 738.059631,716.459351 727.675537,721.716064 
M461.928925,514.785950 
	C458.309174,505.013519 453.219269,496.249939 445.539795,488.978516 
	C420.092560,464.883240 383.649506,470.512512 365.447968,497.690216 
	C349.125488,522.062195 348.758728,548.194336 365.163086,573.192261 
	C375.839935,589.462280 391.415741,598.551575 411.151764,597.810486 
	C426.995819,597.215576 440.141846,590.190674 450.167755,577.432129 
	C464.827545,558.776794 468.251678,538.164185 461.928925,514.785950 
M600.577515,595.003967 
	C617.979126,601.426758 634.109924,597.630554 648.174438,586.957336 
	C662.026367,576.445496 670.133850,561.444702 671.769897,544.177307 
	C673.932983,521.346313 668.116821,500.970856 649.314636,485.746124 
	C625.132385,466.165070 592.550354,471.625031 574.181824,495.844421 
	C563.087402,510.472595 558.834656,527.322998 561.929077,545.854370 
	C565.806030,569.072388 577.661133,585.891174 600.577515,595.003967 
z"/>
<path fill="#000000" opacity="1.000000" stroke="none" 
	d="
M461.967133,515.194824 
	C468.251678,538.164185 464.827545,558.776794 450.167755,577.432129 
	C440.141846,590.190674 426.995819,597.215576 411.151764,597.810486 
	C391.415741,598.551575 375.839935,589.462280 365.163086,573.192261 
	C348.758728,548.194336 349.125488,522.062195 365.447968,497.690216 
	C383.649506,470.512512 420.092560,464.883240 445.539795,488.978516 
	C453.219269,496.249939 458.309174,505.013519 461.967133,515.194824 
z"/>
<path fill="#000000" opacity="1.000000" stroke="none" 
	d="
M600.173950,594.965942 
	C577.661133,585.891174 565.806030,569.072388 561.929077,545.854370 
	C558.834656,527.322998 563.087402,510.472595 574.181824,495.844421 
	C592.550354,471.625031 625.132385,466.165070 649.314636,485.746124 
	C668.116821,500.970856 673.932983,521.346313 671.769897,544.177307 
	C670.133850,561.444702 662.026367,576.445496 648.174438,586.957336 
	C634.109924,597.630554 617.979126,601.426758 600.173950,594.965942 
z"/>
</svg>

<svg version="1.2" xmlns="http://www.w3.org/2000/svg" viewBox="0 0 1024 1024" width="1024" height="1024">
	<title>discord-avatar-1024-F1HXQ-svg</title>
	<style>
		.s0 { fill: #7466d4 } 
	</style>
	<path id="Layer" fill-rule="evenodd" class="s0" d="m727.7 721.7c-21 8-41.7 15.8-62.4 23.7-2.9 1.1-4.2 0.4-5.8-2.3-9.9-16.1-20-32.1-29.9-48.1-0.6-0.9-0.5-2.2-0.5-2.4 17.4-8.3 34.4-16.3 51.9-24.7-3.9-3.2-6.6-5.4-9.4-7.6-2.2-1.8-4.3-1.9-7-0.6-22.4 10.6-45.9 18.4-70 23.9-13.1 2.9-26.4 4.8-39.7 6.3-13.7 1.5-27.6 3.1-41.3 2.9-21.1-0.3-42-2-62.8-5.6-31.1-5.3-60.8-14.5-89.3-27.5-3-1.3-5.2-1-7.5 0.8-2.6 2.1-5.3 4.2-9 7.2 17.7 8.5 34.7 16.7 52.9 25.4-7.7 12.5-15.2 25-23 37.4-2.8 4.6-6.2 8.8-9.1 13.3-1.6 2.5-3.4 2.6-5.8 1.8-21.2-7.2-42.3-14.9-62.7-24.4-26.6-12.2-51.9-26.7-76.1-43.2-3.9-2.6-7.9-5.2-11.5-8.2-1.4-1.2-2.2-3.5-2.6-5.5-0.7-3.2-1-6.5-1.1-9.8-0.4-20.7-1.8-41.5-0.7-62.2 1.3-22.6 4.7-45 7.7-67.4 3.6-26 11-51.2 19.6-76 10-29 22.7-56.9 37.8-83.6 8.7-15.3 18.2-30.2 27.7-45 1.4-2.2 4.9-3.3 7.6-4.5 31-14 63.3-23.8 96.2-31.7 6.7-1.6 13.4-2.8 20.1-4 3-0.6 5.3 0 6.8 3.2 4.5 9.5 9.2 18.8 14.2 28.9 7.8-0.8 16.3-1.7 24.8-2.6 4.4-0.5 8.7-1.4 13.1-1.5 14-0.5 27.9-1.6 41.8-0.9 17.9 0.8 35.7 3 53.5 4.8 4.5 0.4 7.6-0.4 9.6-5.2 3.6-8.4 7.9-16.5 12.3-24.5 0.8-1.3 4-2.5 5.6-2.1 24.6 6.1 49.4 11.8 73.7 19 14.7 4.4 28.9 10.8 43.1 16.9 3.8 1.6 7.6 4.7 9.9 8.1 16.6 24.3 31 49.9 43.5 76.6 14.6 31.4 26.1 64.2 33.8 98 4.1 18.1 6.8 36.6 9.1 55 1.9 14.1 2.3 28.3 3.2 42.4 0.5 9.3 1.2 18.6 0.9 27.8-0.5 14.1-1.8 28.2-3 42.3-0.1 1.4-1.5 3-2.7 4-17.8 13.9-37.2 25.4-57 36-10 5.3-20.1 10.2-30.5 15.4zm-265.8-206.9c-3.6-9.8-8.7-18.6-16.4-25.8-25.4-24.1-61.9-18.5-80.1 8.7-16.3 24.4-16.6 50.5-0.2 75.5 10.6 16.3 26.2 25.4 46 24.6 15.8-0.6 28.9-7.6 39-20.4 14.6-18.6 18.1-39.2 11.7-62.6zm138.7 80.2c17.4 6.4 33.5 2.6 47.6-8 13.8-10.6 21.9-25.6 23.6-42.8 2.1-22.9-3.7-43.2-22.5-58.5-24.2-19.5-56.7-14.1-75.1 10.1-11.1 14.7-15.4 31.5-12.3 50.1 3.9 23.2 15.8 40 38.7 49.1z"/>
</svg>
